client/src/shared/assets/icons/eye-off.svg

<svg width="20" height="19" viewBox="0 0 20 19" fill="none" xmlns="http://www.w3.org/2000/svg">
<path fill-rule="evenodd" clip-rule="evenodd" d="M2.12958 0.749935C1.7716 0.391949 1.1912 0.391949 0.833222 0.749935C0.475246 1.10791 0.475246 1.68832 0.833222 2.04629L3.24584 4.45891C1.74432 5.84245 0.763904 7.40232 0.277952 8.28663C0.0316984 8.73479 0.0316984 9.26508 0.277952 9.71324C1.29068 11.5561 4.451 16.3333 9.99989 16.3333C11.5716 16.3333 12.9516 15.95 14.1456 15.3587L16.9535 18.1666C17.3115 18.5246 17.8919 18.5246 18.2499 18.1666C18.6078 17.8086 18.6078 17.2283 18.2499 16.8702L15.7515 14.3719L2.12958 0.749935ZM1.97961 8.99989C2.44576 8.18158 3.30074 6.8861 4.54347 5.75654L6.54784 7.76092C6.40891 8.14794 6.33322 8.56511 6.33322 8.99989C6.33322 11.025 7.97484 12.6666 9.99989 12.6666C10.4348 12.6666 10.8518 12.5909 11.2389 12.452L12.7587 13.9718C11.9285 14.3027 11.0107 14.5 9.99989 14.5C7.79335 14.5 6.03046 13.5602 4.65266 12.3412C3.3507 11.1893 2.45929 9.84203 1.97961 8.99989Z" fill="#555555"/>
<path d="M13.6111 9.63872L9.36115 5.38872C9.56859 5.35228 9.782 5.33328 9.99989 5.33328C12.0249 5.33328 13.6666 6.9749 13.6666 8.9999C13.6666 9.21779 13.6476 9.43128 13.6111 9.63872Z" fill="#555555"/>
<path d="M15.8451 11.8726C16.879 10.8397 17.6043 9.72991 18.0202 8.99988C17.5405 8.15783 16.6491 6.81049 15.3471 5.65861C13.9693 4.43965 12.2064 3.49993 9.99989 3.49993C9.21156 3.49993 8.47988 3.61987 7.8021 3.82965L6.37459 2.40213C7.44429 1.94864 8.65157 1.66658 9.99989 1.66658C15.5488 1.66658 18.7091 6.44372 19.7218 8.28662C19.9681 8.73478 19.9681 9.26507 19.7218 9.71323C19.279 10.5191 18.4256 11.8858 17.1415 13.169L15.8451 11.8726Z" fill="#555555"/>
</svg>

<svg xmlns="http://www.w3.org/2000/svg" fill="currentColor" viewBox="0 0 20 19"><path fill-rule="evenodd" d="M2.13.75A.917.917 0 1 0 .833 2.046L3.246 4.46C1.744 5.842.764 7.402.278 8.287a1.47 1.47 0 0 0 0 1.426c1.013 1.843 4.173 6.62 9.722 6.62a9.24 9.24 0 0 0 4.146-.974l2.807 2.808a.917.917 0 1 0 1.297-1.297l-2.498-2.498zM1.98 9c.466-.818 1.32-2.114 2.563-3.243L6.548 7.76a3.667 3.667 0 0 0 4.691 4.691l1.52 1.52c-.83.33-1.748.528-2.76.528-2.206 0-3.969-.94-5.346-2.159C3.35 11.19 2.459 9.842 1.98 9" clip-rule="evenodd"/><path d="m13.611 9.639-4.25-4.25a3.667 3.667 0 0 1 4.25 4.25"/><path d="M15.845 11.873A13.8 13.8 0 0 0 18.02 9c-.48-.842-1.37-2.19-2.673-3.341-1.378-1.22-3.14-2.16-5.347-2.16-.788 0-1.52.12-2.198.33L6.375 2.403A9.2 9.2 0 0 1 10 1.667c5.549 0 8.71 4.777 9.722 6.62a1.47 1.47 0 0 1 0 1.426 15.7 15.7 0 0 1-2.58 3.456z"/></svg>
